X: 41624
T: Up Mullahoran
R: polka
M: 2/4
K: Adorian
|:B2 A2|GE EG|Bc/B/ AB|d2 ed|
Bc/B/ AB|GE EG|=A/^A/=A/G/ AG|EF GA:|
e2 eB/d/|ef ge/d/|Bg e/d/B|A2 AB/d/|
e2 eB/d/|ef ge/d/|Bg e/d/B|a2 ag/f/|
e2 eB/d/|ef ge/d/|Bg e/d/B|A2 A2|
ED/E/ FE/F/|GF/G/ A/G/A/B/|d/A/B/d/ e/d/B/^A/|=A/G/E/D/ E/G/A/d/||

